X: 04035
T: INDIAN NECK JIG
C: Bob McQuillen 14 May 78
B: Bob's Note Book 04 #35
R: jig
Z: 2020 John Chambers <jc:trillian.mit.edu>
M: 6/8
L: 1/8
K: G
E \
| D2B Bcd | BdB B2A | D2A ABc | BcB B2A |\
| D2B Bcd | BdB B2A | DAB AGA | BGG G2 :|
|: d \
| g2g f2f | efg d2B | cde dcB | dcB B2A |\
| g2g fed | efg d2B | cde dgB | AGF G2 :|
% (No comment on this tune.)

%%sep 1 1 500

%%sep 1 1 500

